X: 35891
T: Sandy Is My Darling
R: reel
M: 4/4
K: Aminor
E|"Am"{AB}[A2A2] ea "G"gedB|"C"c<GGE GAcG|"Am"{AB}[A2A2] ea "G"gedB|"C"cA"G"BG "Am"{AB}[A2A2] A:|
E|"Am"ABcd "Em"e<g"G"dB|"C"c<GGE GAcG|"Am"ABcd "Em"eg"G"dB|"C"cA"G"BG "Am"{AB}[A2A2] AE|
"Am"ABcd "Em"e<g"G"dB|"C"c<GGE GAcg|"Am"ae"G"gb "Em"edBb|"G"{ga}gedB "Am"{AB}[A2A2] A||

